img/icons/user.svg

<svg width="35" height="35" viewBox="0 0 35 35" fill="none" xmlns="http://www.w3.org/2000/svg">
<path d="M17.4686 17.6503C15.1642 17.6503 13.1915 16.8298 11.5505 15.1888C9.90955 13.5478 9.08905 11.5751 9.08905 9.27069C9.08905 6.9663 9.90955 4.99361 11.5505 3.35261C13.1915 1.71161 15.1642 0.891113 17.4686 0.891113C19.773 0.891113 21.7457 1.71161 23.3867 3.35261C25.0277 4.99361 25.8482 6.9663 25.8482 9.27069C25.8482 11.5751 25.0277 13.5478 23.3867 15.1888C21.7457 16.8298 19.773 17.6503 17.4686 17.6503ZM0.709473 30.2196V28.5437C0.709473 27.3566 1.01533 26.2659 1.62704 25.2715C2.23875 24.2771 3.05017 23.5174 4.0613 22.9922C6.22603 21.9099 8.42566 21.0985 10.6602 20.558C12.8948 20.0175 15.1642 19.7466 17.4686 19.7452C19.773 19.7438 22.0425 20.0147 24.277 20.558C26.5116 21.1012 28.7112 21.9127 30.8759 22.9922C31.8885 23.516 32.7006 24.2757 33.3123 25.2715C33.924 26.2673 34.2292 27.358 34.2278 28.5437V30.2196C34.2278 31.3718 33.8179 32.3585 32.9981 33.1797C32.1783 34.0009 31.1916 34.4108 30.038 34.4094H4.89926C3.74707 34.4094 2.76107 33.9995 1.94127 33.1797C1.12147 32.3599 0.710869 31.3732 0.709473 30.2196Z" fill="#8E95A0"/>
</svg>

<svg width="35" height="35" fill="none" xmlns="http://www.w3.org/2000/svg"><path d="M17.469 17.65c-2.305 0-4.278-.82-5.919-2.461-1.64-1.641-2.46-3.614-2.46-5.919 0-2.305.82-4.277 2.461-5.918S15.165.89 17.47.89c2.304 0 4.277.82 5.918 2.462 1.64 1.64 2.461 3.613 2.461 5.918 0 2.304-.82 4.277-2.461 5.918-1.641 1.64-3.614 2.461-5.918 2.461zM.709 30.22v-1.676c0-1.187.306-2.278.918-3.273a6.138 6.138 0 012.434-2.279 31.064 31.064 0 016.6-2.434 28.933 28.933 0 0113.616 0 31.364 31.364 0 016.599 2.434 6.114 6.114 0 012.436 2.28c.612.995.917 2.086.916 3.272v1.676c0 1.152-.41 2.139-1.23 2.96-.82.82-1.806 1.23-2.96 1.23H4.899c-1.152 0-2.138-.41-2.958-1.23-.82-.82-1.23-1.807-1.232-2.96z" fill="#8E95A0"/></svg>
